src/default/sw/res/twopages_10x24.svg

<?xml version="1.0" encoding="UTF-8" standalone="no"?>
<svg
   viewBox="0 0 24 10"
   version="1.1"
   id="svg4"
   sodipodi:docname="twopages_10x24.svg"
   inkscape:version="1.2 (1:1.2.1+202207142221+cd75a1ee6d)"
   inkscape:export-filename="/home/jupiter007/Libreoffice yaru theme fullcolor/build/sw/res/twopages_10x24.png"
   inkscape:export-xdpi="95"
   inkscape:export-ydpi="95"
   xmlns:inkscape="http://www.inkscape.org/namespaces/inkscape"
   xmlns:sodipodi="http://sodipodi.sourceforge.net/DTD/sodipodi-0.dtd"
   xmlns="http://www.w3.org/2000/svg"
   xmlns:svg="http://www.w3.org/2000/svg"
   xmlns:rdf="http://www.w3.org/1999/02/22-rdf-syntax-ns#"
   xmlns:cc="http://creativecommons.org/ns#"
   xmlns:dc="http://purl.org/dc/elements/1.1/">
  <metadata
     id="metadata10">
    <rdf:RDF>
      <cc:Work
         rdf:about="">
        <dc:format>image/svg+xml</dc:format>
        <dc:type
           rdf:resource="http://purl.org/dc/dcmitype/StillImage" />
      </cc:Work>
    </rdf:RDF>
  </metadata>
  <defs
     id="defs8" />
  <sodipodi:namedview
     pagecolor="#ffffff"
     bordercolor="#666666"
     borderopacity="1"
     objecttolerance="10"
     gridtolerance="10"
     guidetolerance="10"
     inkscape:pageopacity="0"
     inkscape:pageshadow="2"
     inkscape:window-width="1920"
     inkscape:window-height="1043"
     id="namedview6"
     showgrid="true"
     inkscape:zoom="18.75"
     inkscape:cx="-6.2133333"
     inkscape:cy="4.6933333"
     inkscape:window-x="0"
     inkscape:window-y="0"
     inkscape:window-maximized="1"
     inkscape:current-layer="svg4"
     inkscape:showpageshadow="2"
     inkscape:pagecheckerboard="0"
     inkscape:deskcolor="#d1d1d1">
    <inkscape:grid
       type="xygrid"
       id="grid817" />
  </sodipodi:namedview>
  <path
     style="fill:#ffffff;fill-opacity:1;stroke:none;stroke-width:1px;stroke-linecap:butt;stroke-linejoin:miter;stroke-opacity:1"
     d="m 4,1.0000002 h 3 l 3,2.9999998 v 5 h -6 z"
     id="path828"
     inkscape:connector-curvature="0" />
  <path
     inkscape:connector-curvature="0"
     id="path821-7"
     d="m 14,1.0000002 h 3 l 3,2.9999998 v 5 h -6 z"
     style="fill:#ffffff;fill-opacity:1;stroke:none;stroke-width:1px;stroke-linecap:butt;stroke-linejoin:miter;stroke-opacity:1" />
  <path
     d="m 13,3 v 4 c 0,3 1,3 4,3 3,0 4,0 4,-3 v -3 -1 l -3,-3 h -1 c -3,0 -4,0 -4,3 z m 1,0 c 0,-2 1,-2 3,-2 v 2 1 h 1 2 v 3 c 0,2 -1,2 -3,2 -2,0 -3,0 -3,-2 z"
     id="path2-7"
     inkscape:connector-curvature="0"
     style="fill:#6d6d6d;fill-opacity:1"
     sodipodi:nodetypes="ccccccccccccccccccc" />
  <path
     sodipodi:nodetypes="ccccccccccccccccccc"
     style="fill:#6d6d6d;fill-opacity:1"
     inkscape:connector-curvature="0"
     id="path820"
     d="m 3,3 v 4 c 0,3 1,3 4,3 3,0 4,0 4,-3 v -3 -1 l -3,-3 h -1 c -3,0 -4,0 -4,3 z m 1,0 c 0,-2 1,-2 3,-2 v 2 1 h 1 2 v 3 c 0,2 -1,2 -3,2 -2,0 -3,0 -3,-2 z" />
</svg>

<?xml version="1.0" encoding="UTF-8" standalone="no"?>
<svg
   xmlns:dc="http://purl.org/dc/elements/1.1/"
   xmlns:cc="http://creativecommons.org/ns#"
   xmlns:rdf="http://www.w3.org/1999/02/22-rdf-syntax-ns#"
   xmlns:svg="http://www.w3.org/2000/svg"
   xmlns="http://www.w3.org/2000/svg"
   xmlns:sodipodi="http://sodipodi.sourceforge.net/DTD/sodipodi-0.dtd"
   xmlns:inkscape="http://www.inkscape.org/namespaces/inkscape"
   viewBox="0 0 24 10"
   version="1.1"
   id="svg4"
   sodipodi:docname="twopages_10x24.svg"
   inkscape:version="0.92.5 (2060ec1f9f, 2020-04-08)"
   inkscape:export-filename="/home/jupiter007/Libreoffice yaru theme fullcolor/build/sw/res/twopages_10x24.png"
   inkscape:export-xdpi="95"
   inkscape:export-ydpi="95">
  <metadata
     id="metadata10">
    <rdf:RDF>
      <cc:Work
         rdf:about="">
        <dc:format>image/svg+xml</dc:format>
        <dc:type
           rdf:resource="http://purl.org/dc/dcmitype/StillImage" />
      </cc:Work>
    </rdf:RDF>
  </metadata>
  <defs
     id="defs8" />
  <sodipodi:namedview
     pagecolor="#ffffff"
     bordercolor="#666666"
     borderopacity="1"
     objecttolerance="10"
     gridtolerance="10"
     guidetolerance="10"
     inkscape:pageopacity="0"
     inkscape:pageshadow="2"
     inkscape:window-width="1920"
     inkscape:window-height="1011"
     id="namedview6"
     showgrid="true"
     inkscape:zoom="18.75"
     inkscape:cx="-6.16"
     inkscape:cy="4.7066667"
     inkscape:window-x="1920"
     inkscape:window-y="32"
     inkscape:window-maximized="1"
     inkscape:current-layer="svg4">
    <inkscape:grid
       type="xygrid"
       id="grid817" />
  </sodipodi:namedview>
  <path
     style="fill:#ffffff;fill-opacity:1;stroke:none;stroke-width:1px;stroke-linecap:butt;stroke-linejoin:miter;stroke-opacity:1"
     d="m 4,-14 h 3 l 3,3 v 5 H 4 Z"
     id="path819"
     inkscape:connector-curvature="0" />
  <path
     inkscape:connector-curvature="0"
     id="path821"
     d="m 14,-14 h 3 l 3,3 v 5 h -6 z"
     style="fill:#ffffff;fill-opacity:1;stroke:none;stroke-width:1px;stroke-linecap:butt;stroke-linejoin:miter;stroke-opacity:1" />
  <path
     d="m 3,-15 v 10 h 1 6 1 v -1 -5 -1 L 8,-15 H 7 4 Z m 10,0 v 10 h 1 6 1 v -1 -5 -1 l -3,-3 h -1 -3 z m -9,1 h 3 v 2 1 h 1 2 v 5 H 4 Z m 10,0 h 3 v 2 1 h 1 2 v 5 h -6 z"
     id="path2"
     inkscape:connector-curvature="0"
     style="fill:#b3b3b3" />
  <path
     style="fill:#ffffff;fill-opacity:1;stroke:none;stroke-width:1px;stroke-linecap:butt;stroke-linejoin:miter;stroke-opacity:1"
     d="M 4,1.0000002 H 7 L 10,4 V 9 H 4 Z"
     id="path828"
     inkscape:connector-curvature="0" />
  <path
     inkscape:connector-curvature="0"
     id="path821-3"
     d="m 14,1.0000002 h 3 L 20,4 v 5 h -6 z"
     style="fill:#ffffff;fill-opacity:1;stroke:none;stroke-width:1px;stroke-linecap:butt;stroke-linejoin:miter;stroke-opacity:1" />
  <path
     d="m 13,3 v 4 c 0,3 1,3 4,3 3,0 4,0 4,-3 V 4 3 L 18,0 h -1 c -3,0 -4,0 -4,3 z m 1,0 c 0,-2 1,-2 3,-2 v 2 1 h 1 2 v 3 c 0,2 -1,2 -3,2 -2,0 -3,0 -3,-2 z"
     id="path2-7"
     inkscape:connector-curvature="0"
     style="fill:#b3b3b3;fill-opacity:1"
     sodipodi:nodetypes="ccccccccccccccccccc" />
  <path
     sodipodi:nodetypes="ccccccccccccccccccc"
     style="fill:#b3b3b3;fill-opacity:1"
     inkscape:connector-curvature="0"
     id="path820"
     d="m 3,3 v 4 c 0,3 1,3 4,3 3,0 4,0 4,-3 V 4 3 L 8,0 H 7 C 4,0 3,0 3,3 Z M 4,3 C 4,1 5,1 7,1 v 2 1 h 1 2 V 7 C 10,9 9,9 7,9 5,9 4,9 4,7 Z" />
</svg>
